X: 192
T: Bahara İndi Melekler
C: Selahattin İçli
O: Turkey
F: http://compmusic.upf.edu/node/140
N: buselik--sarki--devrihindi--bahara_indi--selahattin_icli
N: makam= buselik
N: form= sarki
N: usul= devrihindi = 7/4
M: 7/4
L: 1/16
K: C    
Q: 1/4=222
%%MIDI tuningsystem comma53
c2 G2 A2 B2 c2 d2 e2  | e2 d2 c2 .d4 .e4  | \
w:  ARANAĞME  |   | 
G4 A2 B2 c2 d2 f2  | e2 d2 c2 .g4 .g4  | 
w:   |   | 
z2 g2 g2 g2 f2 f2 f2  | f2 e2 e2 e2 d2 d4  | \
w:   |   | 
z2 c2 c2 B2 c2 B2 A2  | c2 B2 A2 G4 G4  | 
w:   |   | 
c2 c2 c2 B2 c2 B2 A2  | c2 B2 A2 ^G4 A4  | \
w:   |   | 
c2 G2 A2 B2 c2 d2 e2  | e2 d2 c2 .d4 .e4  | 
w:  ARANAĞME  |   | 
G4 A2 B2 c2 d2 f2  | e2 d2 c2 .g4 .g4  | \
w:   |   | 
z2 g2 g2 g2 f2 f2 f2  | f2 e2 e2 e2 d2 d4  | 
w:   |   | 
z2 c2 c2 B2 c2 B2 A2  | c2 B2 A2 G4 G4  | \
w:   |   | 
c2 c2 c2 B2 c2 B2 A2  | c2 B2 A2 ^G4 A4  | 
w:   |   | 
c2 c4 B4 A4  | c4 c2 B4 A4  | c2 B2 A2 B2 c2 B2 A2  | \
w:  Ba ha ra  in  |  di  me lek ler    |  SAZ  | 
A2 ^G2 F2 G2 A2 B4  | 
w:   | 
d2 d4 c4 B4  | e4 c2 e4 e4  | z2 c2 c2 c2 B2 B2 B2  | \
w:  Se ni  sor du   |  mor  çi çek ler    |  SAZ  | 
B2 A2 A2 A2 G2 G4  | 
w:   | 
c2 c4 B4 A4  | c4 c2 B4 A4  | c2 B2 A2 B2 c2 B2 A2  | \
w:  Ba ha ra  in  |  di  me lek ler    |  SAZ  | 
A2 ^G2 F2 G2 A2 B4  | 
w:   | 
d2 d4 c4 B4  | e4 c2 e4 e4  | z2 g2 g2 g2 f2 f2 e2  | \
w:  Se ni  sor du   |  mor  çi çek ler    |  SAZ  | 
e2 d2 c2 e4 e4  | d2 e4 e4 g4  | 
w:   |  Ö rül dü  aşk  | 
e4 d2 e4 d4  | z2 c2 c2 c2 B2 B2 B2  | \
w:  tan  ka fes ler    |  SAZ  | 
B2 A2 A2 A2 G2 G4  | c2 c4 B4 A4  | 
w:   |  Gü zel  ser çem   | 
A2 ^G2 G2 G8  | c2 c4 B4 A4  | B2 A2 ^G2 A8  | \
w:  ne re de sin    |  Gü zel  ser çem   |  ne re de sin    | 
A2 G2 A2 B2 c2 d2 e2  | e2 d2 c2 d4 e4  | 
w:  SAZ  |   | 
d2 e4 e4 g4  | e4 d2 e4 d4  | z2 c2 c2 c2 B2 B2 B2  | \
w:  Ö rül dü  aşk  |  tan  ka fes ler    |  SAZ  | 
B2 A2 A2 A2 G2 G4  | 
w:   | 
c2 c4 B4 A4  | A2 ^G2 G2 G8  | c2 c4 B4 A4  | \
w:  Gü zel  ser çem   |  ne re de sin    |  Gü zel  ser çem   | 
B2 A2 ^G2 A8  | c2 G2 A2 B2 c2 d2 e2  | 
w:  ne re de sin    |  SAZ  | 
e2 d2 c2 .d4 .e4  | G4 A2 B2 c2 d2 f2  | \
w:   |  SAZ  | 
e2 d2 c2 .g4 .g4  | z2 g2 g2 g2 f2 f2 f2  | 
w:   |   | 
f2 e2 e2 e2 d2 d4  | z2 c2 c2 B2 c2 B2 A2  | \
w:   |   | 
c2 B2 A2 G4 G4  | c2 c2 c2 B2 c2 B2 A2  | 
w:   |   | 
c2 B2 A2 ^G4 A4  | a2 a4 a4 a4  | b4 b2 a4 ^g4  | \
w:   |  Si ya ha  yer   |  yok  i çim de    | 
b6 a4 ^g4  | b6 a2 b2 ^g4  | c'2 c'4 b4 a4  | 
w:  SAZ  |   |  Gö nül  bah çem   | 
a4 g2 f4 e4  | z2 c'2 c'2 c'2 b2 b2 b2  | \
w:  renk  i çin de    |  SAZ  | 
b2 a2 a2 a2 ^g2 a4  | a2 a4 a4 a4  | 
w:   |  Si ya ha  yer   | 
b4 b2 a4 ^g4  | b6 a4 ^g4  | b6 a2 b2 ^g4  | \
w:  yok  i çim de    |  SAZ  |   | 
c'2 c'4 b4 a4  | a4 g2 f4 e4  | z2 c'2 c'2 c'2 b2 b2 a2  | 
w:  Gö nül  bah çem   |  renk  i çin de    |  SAZ  | 
a2 g2 f2 f2 e2 e4  | d4 e2 e4 a4  | g2 f2 e2 d2 e2 c4  | \
w:   |  Ök se  kur dum   |  kalb  *  i çin *  de    | 
z2 c2 c2 c2 B2 B2 B2  | 
w:  SAZ  | 
B2 A2 A2 A2 G2 G4  | c2 c4 B4 A4  | A2 ^G2 G2 G8  | \
w:   |  Mi nik  ser çem   |  ne re de sin    | 
c2 c4 B4 A4  | B2 A2 ^G2 A8  | 
w:  Mi nik  ser çem   |  ne re de sin    | 
A2 G2 A2 B2 c2 d2 e2  | e2 d2 c2 d4 e4  | \
w:  SAZ  |   | 
d4 e2 e4 a4  | g2 f2 e2 d2 e2 c4  | 
w:  Ök se  kur dum   |  kalb  *  i çin *  de    | 
z2 c2 c2 c2 B2 B2 B2  | B2 A2 A2 A2 G2 G4  | \
w:  SAZ  |   | 
c2 c4 B4 A4  | A2 ^G2 G2 G8  | 
w:  Mi nik  ser çem   |  ne re de sin    | 
c2 c4 B4 A4  | B2 A2 ^G2 A8  | c4 c2 B4 A4  | \
w:  Mi nik  ser çem   |  ne re de sin    |  SAZ  | 
^G2 G2 G2 A4 A4  | |


